X: 4440
M: 3/4
L: 1/4
K: F
|: !p!\
d3- | ded |[1 (c3 | A2)A |\
[2 c3 | A2F | G3- | GAG | F3- | Fzz |]
|: !ff!\
f>gf | e>fe | dG>A | B2B |\
e>fe | d>ed | cF>G | A2c |\
f>gf | A=B^c | d>ed | fed |\
e>dc | =BgB | c>cc |[1 czc :|[2 (c=B"_D.C."_B) |]


